www/assets/icons/local_convenience_store.svg

<svg xmlns="http://www.w3.org/2000/svg" width="24" height="24" viewBox="0 0 24 24" fill='currentColor'><path d="M19 7V4H5v3H2v13h8v-4h4v4h8V7zm-8 3H9v1h2v1H8V9h2V8H8V7h3zm5 2h-1v-2h-2V7h1v2h1V7h1z"/></svg>

<svg width="24" height="24" viewBox="0 0 24 24" xmlns="http://www.w3.org/2000/svg" fill='currentColor'><path d="M19 7V4H5V7H2V20H10V16H14V20H22V7H19ZM11 10H9V11H11V12H8V9H10V8H8V7H11V10ZM16 12H15V10H13V7H14V9H15V7H16V12Z"/></svg>
